X: 9439
T: Danny's Birthday
R: slip jig
M: 9/8
K: Amajor
|:e2A d2c B2A|FGA EFA B2A|e2A d2c B2A|1 FGA GAB Acd:|2 FGA GAB A2G||
F3 d3 cBA|GAB EGB cAG|F3 d3 cBA|GAB EGB A2G|
F3 d3 cBA|GAB EGB cAG|~F3 GFG AGA|BAB cBc dcd||

